assets/outgoing.svg

<svg fill="none" height="10" viewBox="0 0 10 10" width="10" xmlns="http://www.w3.org/2000/svg"><path d="m6.58579 2h-5.58579c-.50626 0-.9246542-.37621-.99087065-.86431l-.00912856-.135691c.00000004-.506261.37620521-.9246548.86430521-.99087123l.135694-.00912856 7.9998.0000007c.25586.00005057.5121.09768109.70731.29289209.09582.09582.16812.206246.21692.32411.03235.077948.05512.160871.06684.247303.00604.04469.00913.090675.00913.135695v8c0 .55228-.44772 1-1 1-.50626 0-.92465-.37621-.99087-.86431l-.00913-.13569v-5.58579l-6.29289 6.2929c-.39053.39049-1.023693.39049-1.414218 0-.355021-.35503-.3872961-.91058-.096823-1.30206l.096824-.11216z" fill="#ff4b2b"/></svg>

<svg width="10" height="10" viewBox="0 0 10 10" fill="none" xmlns="http://www.w3.org/2000/svg">
<path d="M6.58579 2L1 2C0.49374 2 0.0753458 1.62379 0.00912935 1.13569L7.86805e-07 0.999999C8.31064e-07 0.493738 0.376206 0.0753442 0.864306 0.00912777L1 -7.86805e-07L8.9998 -8.74403e-08C8.99987 -8.74344e-08 8.99973 -8.74462e-08 8.9998 -8.74403e-08C9.25566 5.04797e-05 9.5119 0.097681 9.70711 0.292892C9.80293 0.388712 9.87523 0.499138 9.92403 0.617002C9.95638 0.69495 9.97915 0.777873 9.99087 0.864305C9.99691 0.908995 10 0.95498 10 1C10 1.0001 10 0.999897 10 1L10 9C10 9.55228 9.55228 10 9 10C8.49374 10 8.07535 9.62379 8.00913 9.13569L8 9L8 3.41421L1.70711 9.70711C1.31658 10.0976 0.683417 10.0976 0.292892 9.70711C-0.062129 9.35208 -0.0944041 8.79653 0.196069 8.40505L0.292893 8.29289L6.58579 2Z" fill="#FF4B2B"/>
</svg>
